assets/images/icons/src/prior-art.svg

<?xml version="1.0" encoding="utf-8"?>
<!-- Generated by IcoMoon.io -->
<!DOCTYPE svg PUBLIC "-//W3C//DTD SVG 1.1//EN" "http://www.w3.org/Graphics/SVG/1.1/DTD/svg11.dtd">
<svg version="1.1" xmlns="http://www.w3.org/2000/svg" xmlns:xlink="http://www.w3.org/1999/xlink" width="14" height="14" viewBox="0 0 14 14">
<path fill="#444444" d="M6.37 6.090h1.204v1.204h-1.204v-1.204z"></path>
<path fill="#444444" d="M5.656 4.256l-0.392 0.7-0.406 0.686h1.61l-0.406-0.686z"></path>
<path fill="#444444" d="M10.5 9.702l-0.196 0.196-0.392-0.392c0.224-0.308 0.35-0.672 0.35-1.078 0-0.98-0.784-1.792-1.778-1.82v-3.5h-1.316v-1.148h-4.928v6.398h1.316v1.162h3.43c0.336 0.448 0.868 0.742 1.456 0.742 0.406 0 0.77-0.126 1.078-0.35l0.392 0.392-0.21 0.196 1.526 1.526 0.798-0.798-1.526-1.526zM3.556 7.798h-0.756v-5.278h3.808v0.602h-3.052v4.676zM6.622 8.442c0 0.182 0.028 0.35 0.084 0.518h-2.59v-5.278h3.822v3.010c-0.77 0.224-1.316 0.924-1.316 1.75zM8.442 9.702c-0.238 0-0.448-0.070-0.644-0.182-0.224-0.126-0.392-0.322-0.504-0.56-0.070-0.154-0.112-0.336-0.112-0.518 0-0.518 0.308-0.952 0.742-1.148 0.154-0.070 0.336-0.112 0.518-0.112 0.014 0 0.028 0 0.042 0 0.672 0.028 1.218 0.574 1.218 1.26s-0.574 1.26-1.26 1.26z"></path>
<path fill="#444444" d="M6.076 7.644c0 0.418-0.338 0.756-0.756 0.756s-0.756-0.338-0.756-0.756c0-0.418 0.338-0.756 0.756-0.756s0.756 0.338 0.756 0.756z"></path>
</svg>

<svg xmlns="http://www.w3.org/2000/svg" width="14" height="14" viewBox="0 0 14 14"><path fill="#444" d="M6.37 6.09h1.204v1.204H6.37V6.09zm-.714-1.834l-.392.7-.406.686h1.61l-.406-.686z"/><path fill="#444" d="M10.5 9.702l-.196.196-.392-.392a1.826 1.826 0 0 0-1.428-2.898v-3.5H7.168V1.96H2.24v6.398h1.316V9.52h3.43a1.83 1.83 0 0 0 1.456.742c.406 0 .77-.126 1.078-.35l.392.392-.21.196 1.526 1.526.798-.798L10.5 9.702zM3.556 7.798H2.8V2.52h3.808v.602H3.556v4.676zm3.066.644c0 .182.028.35.084.518h-2.59V3.682h3.822v3.01a1.819 1.819 0 0 0-1.316 1.75zm1.82 1.26c-.238 0-.448-.07-.644-.182a1.226 1.226 0 0 1-.504-.56 1.256 1.256 0 0 1 1.148-1.778h.042c.672.028 1.218.574 1.218 1.26s-.574 1.26-1.26 1.26z"/><path fill="#444" d="M6.076 7.644a.755.755 0 1 1-1.51.001.755.755 0 0 1 1.51-.001z"/></svg>
